svg/bacteria.svg

<svg xmlns="http://www.w3.org/2000/svg" viewBox="0 0 24 24"><path d="M21 16c0-.5-.05-.92-.12-1.32l1.57-.78-.9-1.8-1.37.69c-.55-.83-1.27-1.29-1.89-1.51l.66-1.96-1.9-.64-.76 2.28c-1.33-.13-2.12-.64-2.59-1.19l1.75-.87-.9-1.8-1.55.79a4.4 4.4 0 0 0-.72-2.02l1.55-2.32-1.66-1.11-1.41 2.12c-.48-.23-1.06-.41-1.76-.5V2H7v2.1c-.71.15-1.27.44-1.68.81L2.7 2.29 1.29 3.71l2.95 2.94C4 7.39 4 8 4 8H2v2h2.04c.06.63.17 1.36.36 2.15l-2.72.9.63 1.9 2.69-.9c.24.51.5 1.03.82 1.53l-2.38 1.59 1.11 1.66 2.52-1.68c.56.56 1.22 1.06 1.99 1.49l-.96 1.91 1.79.9 1-2-.16-.09c.95.32 2.03.54 3.27.61V22h2v-2.07c.76-.09 1.81-.29 2.77-.74l1.52 1.52 1.41-1.42-1.33-1.34c.38-.51.63-1.15.63-1.95M8.5 11A1.5 1.5 0 0 1 7 9.5 1.5 1.5 0 0 1 8.5 8 1.5 1.5 0 0 1 10 9.5 1.5 1.5 0 0 1 8.5 11m2.5 3a1 1 0 0 1-1-1 1 1 0 0 1 1-1 1 1 0 0 1 1 1 1 1 0 0 1-1 1m4.5 3a1.5 1.5 0 0 1-1.5-1.5 1.5 1.5 0 0 1 1.5-1.5 1.5 1.5 0 0 1 1.5 1.5 1.5 1.5 0 0 1-1.5 1.5"/></svg>

<?xml version="1.0" encoding="UTF-8"?><!DOCTYPE svg PUBLIC "-//W3C//DTD SVG 1.1//EN" "http://www.w3.org/Graphics/SVG/1.1/DTD/svg11.dtd"><svg xmlns="http://www.w3.org/2000/svg" xmlns:xlink="http://www.w3.org/1999/xlink" version="1.1" id="mdi-bacteria" width="24" height="24" viewBox="0 0 24 24"><path d="M21,16C21,15.5 20.95,15.08 20.88,14.68L22.45,13.9L21.55,12.1L20.18,12.79C19.63,11.96 18.91,11.5 18.29,11.28L18.95,9.32L17.05,8.68L16.29,10.96C14.96,10.83 14.17,10.32 13.7,9.77L15.45,8.9L14.55,7.1L13,7.89C12.97,7.59 12.86,6.72 12.28,5.87L13.83,3.55L12.17,2.44L10.76,4.56C10.28,4.33 9.7,4.15 9,4.06V2H7V4.1C6.29,4.25 5.73,4.54 5.32,4.91L2.7,2.29L1.29,3.71L4.24,6.65C4,7.39 4,8 4,8H2V10H4.04C4.1,10.63 4.21,11.36 4.4,12.15L1.68,13.05L2.31,14.95L5,14.05C5.24,14.56 5.5,15.08 5.82,15.58L3.44,17.17L4.55,18.83L7.07,17.15C7.63,17.71 8.29,18.21 9.06,18.64L8.1,20.55L9.89,21.45L10.89,19.45L10.73,19.36C11.68,19.68 12.76,19.9 14,19.97V22H16V19.93C16.76,19.84 17.81,19.64 18.77,19.19L20.29,20.71L21.7,19.29L20.37,17.95C20.75,17.44 21,16.8 21,16M8.5,11A1.5,1.5 0 0,1 7,9.5A1.5,1.5 0 0,1 8.5,8A1.5,1.5 0 0,1 10,9.5A1.5,1.5 0 0,1 8.5,11M11,14A1,1 0 0,1 10,13A1,1 0 0,1 11,12A1,1 0 0,1 12,13A1,1 0 0,1 11,14M15.5,17A1.5,1.5 0 0,1 14,15.5A1.5,1.5 0 0,1 15.5,14A1.5,1.5 0 0,1 17,15.5A1.5,1.5 0 0,1 15.5,17Z" /></svg>
